actions/22x22-dark/dialog-scripts.svg

<svg xmlns="http://www.w3.org/2000/svg" viewBox="0 0 22 22">
 <defs id="defs3051">
   <style type="text/css" id="current-color-scheme">
     .ColorScheme-Text {
       color:#f2f2f2;
     }
     </style>
 </defs>
   <path
      style="fill:currentColor;fill-opacity:1;stroke:none"
      d="m5.0927868 7.2839313c-.025173-.02395-.054111-.035925-.086809-.035925-.032703 0-.061611.01199-.086763.035925l-.1887248.1795641c-.025135.02392-.037714.051432-.037714.082597 0 .031149.012556.058668.037714.082599l1.4832835 1.4112656-1.4832835 1.411313c-.025135.02395-.037714.05148-.037714.08255 0 .03115.012556.05867.037714.0826l.1887248.179521c.025135.02398.054058.03588.086763.03588.032703 0 .061649-.01196.086809-.03588l1.7587716-1.673386c.02517-.02395.037711-.05152.037711-.08264s-.012553-.05866-.037711-.0826l-1.7587716-1.6733857zm5.7970892 3.3971487c-.0226-.02154-.05156-.0323-.08677-.0323h-3.6232078c-.035206 0-.064157.01077-.08681.0323-.022603.02154-.03391.04905-.03391.0826v.229857c0 .0335.011301.06105.03391.08255.022665.02151.051604.03231.08681.03231h3.6232078c.03521 0 .06416-.0108.08677-.03231.0226-.0215.03391-.04905.03391-.08255v-.229857c.000033-.03354-.01127-.06105-.03391-.0826zm-7.3217271-5.7542945h14.8636991c.314757 0 .568152.2533949.568152.5681519v10.9369136c0 .314754-.253395.568149-.568152.568149h-14.8636991c-.314754 0-.5681489-.253395-.5681489-.568149v-10.9369136c0-.314757.2533949-.5681519.5681489-.5681519z"
      class="ColorScheme-Text" />
</svg>

<?xml version="1.0" encoding="UTF-8" standalone="no"?>
<svg
   xmlns:dc="http://purl.org/dc/elements/1.1/"
   xmlns:cc="http://creativecommons.org/ns#"
   xmlns:rdf="http://www.w3.org/1999/02/22-rdf-syntax-ns#"
   xmlns:svg="http://www.w3.org/2000/svg"
   xmlns="http://www.w3.org/2000/svg"
   xmlns:sodipodi="http://sodipodi.sourceforge.net/DTD/sodipodi-0.dtd"
   xmlns:inkscape="http://www.inkscape.org/namespaces/inkscape"
   viewBox="0 0 22 22"
   id="svg3197"
   version="1.1"
   inkscape:version="0.91 r13725"
   sodipodi:docname="dialog-scripts.svg">
  <metadata
     id="metadata3205">
    <rdf:RDF>
      <cc:Work
         rdf:about="">
        <dc:format>image/svg+xml</dc:format>
        <dc:type
           rdf:resource="http://purl.org/dc/dcmitype/StillImage" />
      </cc:Work>
    </rdf:RDF>
  </metadata>
  <sodipodi:namedview
     pagecolor="#ffffff"
     bordercolor="#666666"
     borderopacity="1"
     objecttolerance="10"
     gridtolerance="10"
     guidetolerance="10"
     inkscape:pageopacity="0"
     inkscape:pageshadow="2"
     inkscape:window-width="640"
     inkscape:window-height="480"
     id="namedview3203"
     showgrid="false"
     inkscape:zoom="28.954545"
     inkscape:cx="4.8524333"
     inkscape:cy="11"
     inkscape:current-layer="svg3197" />
  <defs
     id="defs3051">
    <style
       type="text/css"
       id="current-color-scheme">
      .ColorScheme-Text {
        color:#f2f2f2
      }
      </style>
  </defs>
  <path
     style="color:#f2f2f2;fill:currentColor;fill-opacity:1;stroke:none"
     class="ColorScheme-Text"
     d="m 5.0927868,7.2839313 c -0.025173,-0.02395 -0.054111,-0.035925 -0.086809,-0.035925 -0.032703,0 -0.061611,0.01199 -0.086763,0.035925 L 4.73049,7.4634954 c -0.025135,0.02392 -0.037714,0.051432 -0.037714,0.082597 0,0.031149 0.012556,0.058668 0.037714,0.082599 L 6.2137735,9.039957 4.73049,10.45127 c -0.025135,0.02395 -0.037714,0.05148 -0.037714,0.08255 0,0.03115 0.012556,0.05867 0.037714,0.0826 l 0.1887248,0.179521 c 0.025135,0.02398 0.054058,0.03588 0.086763,0.03588 0.032703,0 0.061649,-0.01196 0.086809,-0.03588 L 6.8515584,9.122555 c 0.02517,-0.02395 0.037711,-0.05152 0.037711,-0.08264 0,-0.03112 -0.012553,-0.05866 -0.037711,-0.0826 l -1.7587716,-1.6733857 0,0 z M 10.889876,10.68108 c -0.0226,-0.02154 -0.05156,-0.0323 -0.08677,-0.0323 l -3.6232078,0 c -0.035206,0 -0.064157,0.01077 -0.08681,0.0323 -0.022603,0.02154 -0.03391,0.04905 -0.03391,0.0826 l 0,0.229857 c 0,0.0335 0.011301,0.06105 0.03391,0.08255 0.022665,0.02151 0.051604,0.03231 0.08681,0.03231 l 3.6232078,0 c 0.03521,0 0.06416,-0.0108 0.08677,-0.03231 0.0226,-0.0215 0.03391,-0.04905 0.03391,-0.08255 l 0,-0.229857 c 3.3e-5,-0.03354 -0.01127,-0.06105 -0.03391,-0.0826 l 0,0 z m -7.3217271,-5.7542945 14.8636991,0 C 18.746605,4.9267855 19,5.1801804 19,5.4949374 L 19,16.431851 C 19,16.746605 18.746605,17 18.431848,17 L 3.5681489,17 C 3.2533949,17 3,16.746605 3,16.431851 L 3,5.4949374 C 3,5.1801804 3.2533949,4.9267855 3.5681489,4.9267855 Z"
     id="path3201"
     inkscape:connector-curvature="0" />
</svg>
